!!!OTL: Falscher Sinn (81a), S. 221
!!!id: T0237V
**kern
*clefG2
*k[f#c#]
*D:
{8d
8f#
=1
4a
8a
8dd
8a
8g
8g
8e
=2
4f#
8f#
8f#
4e}
=3
{8e
8f#
=4
4g
4f#
4g
4b
=5
2a}
4r
=6
{8f#
8a
=7
4dd
8dd
8dd
8ee
8dd
8cc#
8b
=8
2b
4a
4r
=9
4g
8b
8g
4f#}
=10
{8a
8dd
=11
4b
8a
8g
4a
4a
=12
2f#}
4r
==
*-
!!!minrhy: 8
!!!meters: 4/4 ]  ZZ[4
!!!cut1: Falscher Sinn (81a), S. 221
!!!cut2: 2. Melodie, 2. Variante
!!!reg: Luxemburg
!!!trd: Singendes Volk, Esch-Alzette 1937 posth.
!!!rhy1: XX  X_XXXXXX  X_XXX_
!!!rhy2: XX  X_X_X_X_  X__0_
!!!key: T0237V 08  D 4/4 ]  ZZ[4
!!!mod: HEPTATONIK IONISCH]  AMBITUS[9
!!!kad: 2533
!!!akz: 5532_445_+1+26543_653_
!!!fot: 'a__b__c__d__
!!!for: 'a__b__c__d__
!!!fok: '^a_/__^__\__
!! PHRAS[AUFTAKTIG]
!!!fkt: Liebeslieder
!!!bem1: 2. Variante aus Stra&szlig;en, ohne S&auml;nger und Jahr,
!!!bem2: vielleicht 1906
!! THILL, Mathias:
!! PR[25] 2K[3] 2G[11] 3K[6] 3G[8] 4A[3] 4Ü[0] 5A[0] 6K[0] 6G[0]
!! 7K[0] 7G[0] 8A[0] MEHR[0] SI[31] ABS[36] SR[14] SP[17]
!! ST[8] 2k[8] 2g[31] 3k[3] 3g[3] 4d[0] 4ü[0] 5d[0] 6k[0] 6g[0]
!! 7k[0] 7g[0] 8d[0] mehr[0] si[44] dm[-13] sr[39] sp[6]
!! 1F[35] 2F[58] 3F[8] 4F[0] LF[0] 2P[0] 3P[0] 4P[0] TRI[0] DF[3] AB[40]
!! TF[0] U3K[0] U3[0] U4[0] U4Ü[0] U5[0] U6K[0] U6[0] U7K[0] U7[0]
!! N1[5] N2K[0] N2[11] N3K[0] N3[19] N4[14] N4Ü[0] N5[27] N6K[0] N6[14]
!!!n7k: 0] N7[3] O1[8] O2K[0] O2[0] O3K[0] O3[0] HÖ[0
!!!RNB: symbol: &szlig; = sz ligature (UTF-8: ÃŸ)
!!!RNB: symbol: &auml;      = a umlaut  (UTF-8: Å„)
